Collapse/img/games/player_rust_skeleton_old.svg

<svg width="111" height="290" viewBox="0 0 111 290" fill="none" xmlns="http://www.w3.org/2000/svg">
<path d="M99 45L99.9832 44.8174C99.9801 44.8007 99.9765 44.784 99.9726 44.7674L99 45ZM105.5 80L106.49 79.8561C106.488 79.8431 106.486 79.8302 106.483 79.8174L105.5 80ZM43.8731 198.5L42.8757 198.428C42.8746 198.443 42.8738 198.458 42.8734 198.472L43.8731 198.5ZM67.5 72H66.5C66.5 72.0305 66.5014 72.0611 66.5042 72.0915L67.5 72ZM64.0688 11.7554L65.0344 11.4955L64.0688 11.7554ZM91.1151 185.281L92.1136 185.227L91.1151 185.281ZM91.091 185.717L92.0775 185.88L91.091 185.717ZM87.9376 136.455L88.6337 135.737L87.9376 136.455ZM88.5424 137.782L89.5409 137.728L88.5424 137.782ZM49.4219 133.97L48.9238 133.103L49.4219 133.97ZM48.4233 135.56L47.4259 135.488L48.4233 135.56ZM41.9292 266.745L42.8899 267.023L41.9292 266.745ZM42.007 266.245L43.0066 266.273L42.007 266.245ZM93.9047 23.6922L94.8772 23.4596L93.9047 23.6922ZM14.3155 59.1083L13.3978 59.5055L14.3155 59.1083ZM80.8726 253.234L80.229 253.999L80.8726 253.234ZM39.4254 20.2174L39.5762 19.2289L39.4254 20.2174ZM37.3433 21.2836L38.2335 21.7391L37.3433 21.2836ZM67.6508 23.5114L39.5762 19.2289L39.2746 21.206L67.3492 25.4886L67.6508 23.5114ZM36.453 20.8281L17.0412 58.7694L18.8217 59.6803L38.2335 21.7391L36.453 20.8281ZM67.5957 25.4954L91.8638 23.1619L91.6724 21.1711L67.4043 23.5046L67.5957 25.4954ZM92.9321 23.9248L98.0274 45.2326L99.9726 44.7674L94.8772 23.4596L92.9321 23.9248ZM71.5019 120.133L48.9238 133.103L49.92 134.838L72.4981 121.867L71.5019 120.133ZM40.9685 266.467L34.5393 288.722L36.4607 289.278L42.8899 267.023L40.9685 266.467ZM71.3039 121.718L87.2414 137.173L88.6337 135.737L72.6961 120.282L71.3039 121.718ZM80.229 253.999L101.356 271.765L102.644 270.235L81.5162 252.468L80.229 253.999ZM98.0168 45.1826L104.517 80.1826L106.483 79.8174L99.9832 44.8174L98.0168 45.1826ZM104.51 80.1439L108.51 107.644L110.49 107.356L106.49 79.8561L104.51 80.1439ZM15.2333 58.7111L2.41772 29.1028L0.582278 29.8972L13.3978 59.5055L15.2333 58.7111ZM47.4259 135.488L42.8757 198.428L44.8705 198.572L49.4207 135.633L47.4259 135.488ZM42.8734 198.472L41.0074 266.217L43.0066 266.273L44.8727 198.528L42.8734 198.472ZM87.5438 137.836L90.1165 185.335L92.1136 185.227L89.5409 137.728L87.5438 137.836ZM90.1045 185.553L79.2003 251.212L81.1733 251.539L92.0775 185.88L90.1045 185.553ZM66.5 24.5V72H68.5V24.5H66.5ZM66.5042 72.0915L71.0042 121.091L72.9958 120.909L68.4958 71.9085L66.5042 72.0915ZM63 0V11.2355H65V0H63ZM63.1032 12.0154L66.5344 24.76L68.4656 24.24L65.0344 11.4955L63.1032 12.0154ZM63 11.2355C63 11.4989 63.0347 11.7611 63.1032 12.0154L65.0344 11.4955C65.0116 11.4107 65 11.3233 65 11.2355H63ZM90.1165 185.335C90.1205 185.408 90.1164 185.481 90.1045 185.553L92.0775 185.88C92.1133 185.664 92.1254 185.445 92.1136 185.227L90.1165 185.335ZM87.2414 137.173C87.4222 137.348 87.5302 137.585 87.5438 137.836L89.5409 137.728C89.5 136.974 89.1761 136.263 88.6337 135.737L87.2414 137.173ZM48.9238 133.103C48.0592 133.6 47.4978 134.494 47.4259 135.488L49.4207 135.633C49.4447 135.301 49.6318 135.003 49.92 134.838L48.9238 133.103ZM42.8899 267.023C42.9604 266.779 42.9996 266.526 43.0066 266.273L41.0074 266.217C41.0051 266.302 40.992 266.386 40.9685 266.467L42.8899 267.023ZM91.8638 23.1619C92.3603 23.1142 92.8161 23.4397 92.9321 23.9248L94.8772 23.4596C94.5292 22.0043 93.1619 21.0279 91.6724 21.1711L91.8638 23.1619ZM17.0412 58.7694C16.6562 59.5219 15.5691 59.4869 15.2333 58.7111L13.3978 59.5055C14.4052 61.8329 17.6666 61.938 18.8217 59.6803L17.0412 58.7694ZM81.5162 252.468C81.2457 252.241 81.1154 251.888 81.1733 251.539L79.2003 251.212C79.0266 252.257 79.4177 253.317 80.229 253.999L81.5162 252.468ZM39.5762 19.2289C38.2994 19.0341 37.0413 19.6783 36.453 20.8281L38.2335 21.7391C38.4296 21.3558 38.849 21.1411 39.2746 21.206L39.5762 19.2289Z" fill="#DB2F3A"/>
</svg>

<svg width="111" height="290" fill="none" xmlns="http://www.w3.org/2000/svg"><path d="M99 45l.983-.183a1.084 1.084 0 00-.01-.05L99 45zm6.5 35l.99-.144a.506.506 0 00-.007-.039L105.5 80zM43.873 198.5l-.997-.072a1 1 0 00-.003.044l1 .028zM67.5 72h-1c0 .03.001.061.004.091L67.5 72zm-3.431-60.245l.965-.26-.965.26zm27.046 173.526l.999-.054-.999.054zm-.024.436l.987.163-.987-.163zm-3.153-49.262l.696-.718-.696.718zm.604 1.327l.999-.054-.999.054zm-39.12-3.812l-.498-.867.498.867zm-.999 1.59l-.997-.072.997.072zM41.93 266.745l.96.278-.96-.278zm.078-.5l1 .028-1-.028zM93.905 23.692l.972-.232-.972.232zm-79.59 35.416l-.917.398.918-.398zm66.558 194.126l-.644.765.644-.765zM39.425 20.217l.151-.988-.15.988zm-2.082 1.067l.89.455-.89-.455zm30.308 2.227L39.576 19.23l-.301 1.977 28.074 4.283.302-1.978zm-31.198-2.683L17.041 58.77l1.78.911 19.412-37.94-1.78-.912zm31.143 4.667l24.268-2.333-.192-1.99-24.268 2.333.192 1.99zm25.336-1.57l5.095 21.308 1.946-.466-5.096-21.307-1.945.465zm-21.43 96.208l-22.578 12.97.996 1.735 22.578-12.971-.996-1.734zM40.969 266.467l-6.43 22.255 1.922.556 6.429-22.255-1.922-.556zm30.335-144.749l15.937 15.455 1.393-1.436-15.938-15.455-1.392 1.436zm8.925 132.281l21.127 17.766 1.288-1.53-21.128-17.767-1.287 1.531zM98.017 45.183l6.5 35 1.966-.366-6.5-35-1.966.366zm6.493 34.96l4 27.501 1.98-.288-4-27.5-1.98.288zM15.233 58.712L2.418 29.103l-1.836.794 12.816 29.608 1.835-.794zm32.193 76.777l-4.55 62.94 1.995.144 4.55-62.939-1.995-.145zm-4.553 62.984l-1.866 67.745 2 .056 1.866-67.745-2-.056zm44.67-60.636l2.573 47.499 1.998-.108-2.573-47.499-1.997.108zm2.561 47.717L79.2 251.212l1.973.327 10.904-65.659-1.972-.327zM66.5 24.5V72h2V24.5h-2zm.004 47.591l4.5 49 1.992-.182-4.5-49-1.992.182zM63 0v11.236h2V0h-2zm.103 12.015l3.431 12.745 1.932-.52-3.432-12.744-1.93.52zm-.103-.78c0 .264.035.526.103.78l1.931-.52a1.001 1.001 0 01-.034-.26h-2zm27.117 174.1a1 1 0 01-.013.218l1.974.327c.035-.216.047-.435.036-.653l-1.998.108zm-2.876-48.162c.181.175.29.412.303.663l1.997-.108a3 3 0 00-.907-1.991l-1.393 1.436zm-38.317-4.07a3.001 3.001 0 00-1.498 2.385l1.995.145a.999.999 0 01.499-.795l-.996-1.735zm-6.034 133.92c.07-.244.11-.497.117-.75l-2-.056a.994.994 0 01-.038.25l1.92.556zM91.864 23.162a1 1 0 011.068.763l1.945-.465a3 3 0 00-3.205-2.289l.192 1.99zM17.04 58.769a1 1 0 01-1.808-.058l-1.835.794c1.007 2.328 4.269 2.433 5.424.175l-1.78-.91zm64.475 193.699a.999.999 0 01-.343-.929l-1.973-.327a3 3 0 001.029 2.787l1.287-1.531zm-41.94-233.24a3 3 0 00-3.123 1.6l1.78.911a1 1 0 011.042-.533l.301-1.977z" fill="#DB2F3A"/></svg>
